dist/assets/images/header/logo.svg

<svg width="143" height="57" viewBox="0 0 143 57" fill="none" xmlns="http://www.w3.org/2000/svg">
<path d="M18.0641 22.5797C18.0641 23.132 18.5119 23.5797 19.0641 23.5797H27.1806C27.7329 23.5797 28.1806 24.0274 28.1806 24.5797V26.8639C28.1806 27.2013 28.0122 27.5192 27.7203 27.6883C25.7656 28.8205 23.542 29.2131 20.8843 29.2131C13.7473 29.2131 9.2642 25.3951 9.2642 18.6046C9.27113 11.821 13.7473 7.99618 20.8843 7.99618C23.5184 7.99618 25.7259 8.37592 27.668 9.48946C27.9892 9.67362 28.3836 9.69333 28.7083 9.51528L35.1326 5.99174C35.7253 5.66666 35.8299 4.85997 35.301 4.43901C31.937 1.76171 26.8822 0 20.427 0C8.01003 0 0.0138582 7.18547 0 18.5977C0 18.6046 0 18.6046 0 18.6116C0 18.6185 0 18.6185 0 18.6254C0.00692909 30.0376 8.01003 37.2231 20.427 37.2231C27.3504 37.2231 32.6663 35.1926 36.0153 32.1786C36.2185 31.9957 36.3292 31.733 36.3292 31.4597V17.0894C36.3292 16.5371 35.8815 16.0894 35.3292 16.0894H19.0642C18.5119 16.0894 18.0641 16.5371 18.0641 17.0894V22.5797Z" fill="#37455C"/>
<path d="M64.712 31.2115C64.551 30.8515 64.1934 30.6197 63.7991 30.6197H50.8008C50.4065 30.6197 50.0489 30.8515 49.888 31.2115L47.805 35.8692C47.644 36.2292 47.2864 36.461 46.8921 36.461H39.3951C38.6779 36.461 38.1938 35.7282 38.4753 35.0685L52.9075 1.24509C53.0647 0.876621 53.4267 0.637543 53.8273 0.637543H60.7795C61.1802 0.637543 61.5421 0.876619 61.6993 1.24508L76.1315 35.0685C76.413 35.7282 75.929 36.461 75.2118 36.461H67.7078C67.3135 36.461 66.9559 36.2292 66.7949 35.8692L64.712 31.2115ZM53.3409 22.1664C53.0898 22.8212 53.5733 23.5243 54.2746 23.5243H60.3802C61.0797 23.5243 61.5631 22.8245 61.3154 22.1702L58.2814 14.1579C57.956 13.2986 56.7413 13.2961 56.4124 14.154L53.3409 22.1664Z" fill="#37455C"/>
<path d="M100.624 36.4625C100.624 36.4615 100.624 36.4604 100.624 36.4595L94.3214 27.257C94.2332 27.1282 94.0871 27.0512 93.931 27.0512H89.6995C89.1472 27.0512 88.6995 27.4989 88.6995 28.0512V35.4609C88.6995 36.0132 88.2518 36.4609 87.6995 36.4609H80.8926C80.3404 36.4609 79.8926 36.0132 79.8926 35.4609V1.68597C79.8926 1.13369 80.3404 0.685974 80.8926 0.685974H94.6863C104.602 0.685974 109.93 5.36311 109.93 13.872C109.93 19.0682 107.913 22.6631 104.268 24.7833C103.723 25.1003 103.536 25.8206 103.908 26.3292L110.171 34.8768C110.655 35.5374 110.183 36.4678 109.364 36.4678H100.63C100.627 36.4678 100.624 36.4655 100.624 36.4625ZM88.6995 19.6994H93.834C98.7121 19.6994 100.68 17.2812 100.68 14.364C100.68 10.3867 98.816 8.32184 94.0904 8.32184H89.7064C89.1542 8.32184 88.7064 8.76955 88.7064 9.32184V19.6925C88.7064 19.6963 88.7033 19.6994 88.6995 19.6994Z" fill="#37455C"/>
<path d="M141.802 0.630585H113.057C112.505 0.630585 112.057 1.0783 112.057 1.63059V7.88314C112.057 8.43542 112.505 8.88314 113.057 8.88314H141.802C142.354 8.88314 142.802 8.43542 142.802 7.88314V1.63058C142.802 1.0783 142.354 0.630585 141.802 0.630585Z" fill="#37455C"/>
<path d="M132.003 33.2347C132.668 33.6709 133.551 33.1939 133.551 32.3985V29.1781C133.551 28.841 133.382 28.5266 133.1 28.3418L126.859 24.25C126.577 24.0652 126.407 23.7508 126.407 23.4138V20.6155C126.407 19.8202 127.291 19.3432 127.956 19.7792L132.003 22.4329C132.668 22.8689 133.551 22.3918 133.551 21.5966V8.85761C133.551 8.30532 133.104 7.8576 132.551 7.8576H122.405C121.852 7.8576 121.405 8.30532 121.405 8.8576V25.7421C121.405 26.0791 121.574 26.3934 121.856 26.5782L132.003 33.2347Z" fill="#37455C"/>
<path d="M122.953 32.9728C122.288 32.5366 121.405 33.0136 121.405 33.809V37.1961C121.405 37.5329 121.574 37.8472 121.856 38.032L128.173 42.1791C128.455 42.364 128.625 42.6782 128.625 43.0151V45.8072C128.625 46.6023 127.742 47.0794 127.077 46.6435L122.953 43.9405C122.288 43.5046 121.405 43.9817 121.405 44.7769V50.2793C121.405 50.5566 121.52 50.8214 121.723 51.0106L126.793 55.7393C127.177 56.0975 127.772 56.0976 128.157 55.7397L133.233 51.0106C133.436 50.8215 133.551 50.5564 133.551 50.2789V40.4654C133.551 40.1284 133.382 39.8141 133.1 39.6293L122.953 32.9728Z" fill="#37455C"/>
</svg>

<svg width="143" height="57" fill="none" xmlns="http://www.w3.org/2000/svg"><path d="M18.064 22.58a1 1 0 001 1h8.117a1 1 0 011 1v2.284a.945.945 0 01-.46.824c-1.955 1.133-4.179 1.525-6.837 1.525-7.137 0-11.62-3.818-11.62-10.608.007-6.784 4.483-10.609 11.62-10.609 2.634 0 4.842.38 6.784 1.493.321.185.716.204 1.04.026l6.425-3.523c.592-.325.697-1.132.168-1.553C31.937 1.762 26.882 0 20.427 0 8.01 0 .014 7.185 0 18.598v.027c.007 11.413 8.01 18.598 20.427 18.598 6.923 0 12.24-2.03 15.588-5.044a.964.964 0 00.314-.72V17.09a1 1 0 00-1-1H19.064a1 1 0 00-1 1v5.49zm46.648 8.632a1 1 0 00-.913-.592H50.801a1 1 0 00-.913.591l-2.083 4.658a1 1 0 01-.913.592h-7.497a1 1 0 01-.92-1.392L52.907 1.245a1 1 0 01.92-.607h6.953a1 1 0 01.92.607l14.43 33.823a1 1 0 01-.92 1.393h-7.503a1 1 0 01-.913-.592l-2.083-4.657zm-11.371-9.046a1 1 0 00.934 1.358h6.105a1 1 0 00.935-1.354l-3.034-8.012c-.325-.86-1.54-.862-1.869-.004l-3.071 8.012zm47.283 14.296v-.003l-6.303-9.202a.473.473 0 00-.39-.206H89.7a1 1 0 00-1 1v7.41a1 1 0 01-1 1h-6.807a1 1 0 01-1-1V1.686a1 1 0 011-1h13.793c9.916 0 15.244 4.677 15.244 13.186 0 5.196-2.017 8.791-5.662 10.911-.545.317-.732 1.038-.36 1.546l6.263 8.548a1 1 0 01-.807 1.59h-8.734c-.003 0-.006-.002-.006-.005zM88.7 19.7h5.134c4.878 0 6.846-2.418 6.846-5.335 0-3.977-1.864-6.042-6.59-6.042h-4.384a1 1 0 00-1 1v10.37a.007.007 0 01-.007.007zM141.802.63h-28.745a1 1 0 00-1 1v6.253a1 1 0 001 1h28.745a1 1 0 001-1V1.631a1 1 0 00-1-1z" fill="#37455C"/><path d="M132.003 33.235a1 1 0 001.548-.837v-3.22a.999.999 0 00-.451-.836l-6.241-4.092a1 1 0 01-.452-.836v-2.799a1 1 0 011.549-.836l4.047 2.654a1 1 0 001.548-.836V8.857a1 1 0 00-1-1h-10.146a1 1 0 00-1 1v16.885c0 .337.169.651.451.836l10.147 6.657zm-9.05-.262a1 1 0 00-1.548.836v3.387c0 .337.169.651.451.836l6.317 4.147a1 1 0 01.452.836v2.792a1 1 0 01-1.548.837l-4.124-2.703a1 1 0 00-1.548.836v5.502a1 1 0 00.318.732l5.07 4.728a1 1 0 001.364 0l5.076-4.728a1 1 0 00.318-.732v-9.814a.999.999 0 00-.451-.836l-10.147-6.656z" fill="#37455C"/></svg>
